X:759
T:North of the Tweed
R:Strathspey
B:The Athole Collection
M:C
L:1/8
K:E Minor
G/F/|EG|F<DA<F d/^c/B/A/ G/F/E/D/|EG|
F<dD<F G<E~E:|
f|g>fe>^d e^c|d>BA>G F<dF<D|E>Be>f g>fe>d|(3B^cd (3ef^d e2 e>f|
g>fe>^d e>Bd>^c|d>BA>G F<dF<D|(3EFG (3FGA (3GAB (3ABc|
(3dcB (3AGF G<E~E||
